X: 10421
M: 6/8
L: 1/8
K: D
V: 1 clef=treble
d3 e3 | f3 z2g | aba gfg | f3 z2A |\
d3 e3 | f2z zgg | fgf ede | d3 z2 :|
|: f/g/ |\
a2a a2f | g2g g2e | f2f fed | {f}e2z zAA |\
d3 e3 | f3 z2g | fgf ede | d3 z2 :|
V: 2 clef=treble
d2z zee | ded AAG | F3 z2 :||: d/e/ | f2f f2d | e2e e2c |
d2d d2F | A2z zAG | F3 A3 | d3 z2e | ABA GFG | F3 z2 :|


